pix/fp/view_icon_active.svg

<svg preserveAspectRatio="xMinYMid meet" viewBox="0 0 448 512" xmlns="http://www.w3.org/2000/svg"><path d="m384 96v128h-128v-128zm0 192v128h-128v-128zm-192-64h-128v-128h128zm-128 64h128v128h-128zm0-256c-35.3 0-64 28.7-64 64v320c0 35.3 28.7 64 64 64h320c35.3 0 64-28.7 64-64v-320c0-35.3-28.7-64-64-64z"/></svg>

<svg xmlns="http://www.w3.org/2000/svg" viewBox="0 0 448 512"
     preserveAspectRatio="xMinYMid meet"><!--!Font Awesome Free 6.5.2 by @fontawesome - https://fontawesome.com License - https://fontawesome.com/license/free Copyright 2024 Fonticons, Inc.-->
    <path d="M384 96V224H256V96H384zm0 192V416H256V288H384zM192 224H64V96H192V224zM64 288H192V416H64V288zM64 32C28.7 32 0 60.7 0 96V416c0 35.3 28.7 64 64 64H384c35.3 0 64-28.7 64-64V96c0-35.3-28.7-64-64-64H64z"/>
</svg>
